icons/blood_ab_p_fill.svg

<svg width="48" height="48" viewBox="0 0 48 48" fill="none" xmlns="http://www.w3.org/2000/svg">
<path d="M27.6121 5.53462C25.6433 3.48846 22.3567 3.48846 20.3879 5.53462L19.8602 6.0831H15C12.2448 6.0831 10 8.30376 10 11.0569V33.0262C10 35.7793 12.2448 38 15 38H18V40H23V44H25V40H30V38H33C35.7552 38 38 35.7794 38 33.0262V23H36V27.5388C35.7222 27.3234 35.4135 27.1103 35.0748 26.9132C33.2501 25.8513 30.6105 25.2987 27.4919 27.1387C24.924 28.6537 22.5089 29.0636 19.8818 29.1195C18.7111 29.1444 17.5144 29.0991 16.2311 29.0505C16.0561 29.0438 15.8789 29.0371 15.7005 29.0306C14.5326 28.9875 13.3017 28.9498 12 28.9709V11.0569C12 9.4207 13.3369 8.0831 15 8.0831H20.2857C20.5576 8.0831 20.8178 7.97238 21.0063 7.77645L21.8291 6.92133C23.0111 5.69289 24.9889 5.69289 26.1709 6.92133L26.9937 7.77645C27.1822 7.97238 27.4424 8.0831 27.7143 8.0831H33.3302C34.8109 8.0831 36 9.27385 36 10.7289V15H38V10.7289C38 8.1569 35.903 6.0831 33.3302 6.0831H28.1398L27.6121 5.53462Z" fill="black"/>
<path fill-rule="evenodd" clip-rule="evenodd" d="M18.5 14C18.8973 14 19.2569 14.2351 19.4162 14.5991L22.0324 20.5791C22.0387 20.5926 22.0447 20.6063 22.0504 20.6201L22.9162 22.5991C23.1375 23.1051 22.9068 23.6947 22.4008 23.9161C21.8948 24.1375 21.3052 23.9067 21.0838 23.4008L20.471 22H16.529L15.9162 23.4008C15.6948 23.9067 15.1052 24.1375 14.5992 23.9161C14.0932 23.6947 13.8625 23.1051 14.0838 22.5991L14.9496 20.6201C14.9504 20.6184 14.9511 20.6167 14.9518 20.615C14.9568 20.6029 14.9621 20.5909 14.9676 20.5791L17.5838 14.5991C17.7431 14.2351 18.1027 14 18.5 14ZM19.596 20L18.5 17.4948L17.404 20H19.596Z" fill="black"/>
<path fill-rule="evenodd" clip-rule="evenodd" d="M25 14C24.4477 14 24 14.4477 24 15V23C24 23.2652 24.1054 23.5195 24.2929 23.7071C24.4804 23.8946 24.7348 24 25 24H28.125C29.7726 24 31 22.595 31 21C31 20.2488 30.7278 19.5399 30.2678 19C30.7278 18.46 31 17.7511 31 17C31 15.4049 29.7726 14 28.125 14H25ZM29 17C29 17.614 28.5484 18 28.125 18H26V16H28.125C28.5484 16 29 16.3859 29 17ZM29 21C29 20.3859 28.5484 20 28.125 20H26V22H28.125C28.5484 22 29 21.614 29 21Z" fill="black"/>
<path d="M32 19C32 18.4477 32.4477 18 33 18H34V17C34 16.4477 34.4477 16 35 16C35.5523 16 36 16.4477 36 17V18H37C37.5523 18 38 18.4477 38 19C38 19.5522 37.5523 20 37 20H36V21C36 21.5522 35.5523 22 35 22C34.4477 22 34 21.5522 34 21V20H33C32.4477 20 32 19.5522 32 19Z" fill="black"/>
</svg>

<svg
  xmlns="http://www.w3.org/2000/svg"
  width="24"
  height="24"
  viewBox="0 0 24 24"
  fill="none"
  stroke="currentColor"
  stroke-width="2"
  stroke-linecap="round"
  stroke-linejoin="round"
>
  <path d="M27.612 5.535a5.02 5.02 0 0 0-7.224 0l-.528.548H15c-2.755 0-5 2.22-5 4.974v21.97C10 35.778 12.245 38 15 38h3v2h5v4h2v-4h5v-2h3c2.755 0 5-2.22 5-4.974V23h-2v4.539a8.4 8.4 0 0 0-.925-.626c-1.825-1.062-4.465-1.614-7.583.226-2.568 1.515-4.983 1.925-7.61 1.98-1.17.025-2.368-.02-3.65-.069l-.531-.02A69 69 0 0 0 12 28.97V11.058c0-1.636 1.337-2.974 3-2.974h5.286a1 1 0 0 0 .72-.307l.823-.855a3.02 3.02 0 0 1 4.342 0l.823.855a1 1 0 0 0 .72.307h5.616c1.48 0 2.67 1.19 2.67 2.646V15h2v-4.271c0-2.572-2.097-4.646-4.67-4.646h-5.19z" />
  <path
    fill-rule="evenodd"
    d="M18.5 14a1 1 0 0 1 .916.6l2.616 5.98.018.04.866 1.98a1 1 0 0 1-1.832.8L20.47 22h-3.942l-.613 1.4a1 1 0 0 1-1.832-.8l.866-1.98.002-.005.016-.036 2.616-5.98A1 1 0 0 1 18.5 14m1.096 6L18.5 17.495 17.404 20z"
    clip-rule="evenodd"
  />
  <path
    fill-rule="evenodd"
    d="M25 14a1 1 0 0 0-1 1v8a1 1 0 0 0 1 1h3.125C29.773 24 31 22.595 31 21a3.1 3.1 0 0 0-.732-2A3.1 3.1 0 0 0 31 17c0-1.595-1.227-3-2.875-3zm4 3c0 .614-.452 1-.875 1H26v-2h2.125c.423 0 .875.386.875 1m0 4c0-.614-.452-1-.875-1H26v2h2.125c.423 0 .875-.386.875-1"
    clip-rule="evenodd"
  />
  <path d="M32 19a1 1 0 0 1 1-1h1v-1a1 1 0 1 1 2 0v1h1a1 1 0 1 1 0 2h-1v1a1 1 0 0 1-2 0v-1h-1a1 1 0 0 1-1-1" />
</svg>
